assets/img/github-logo-sign.svg

<svg width="32" height="32" viewBox="0 0 32 32" fill="none" xmlns="http://www.w3.org/2000/svg">
<g clip-path="url(#clip0_225_4069)">
<path fill-rule="evenodd" clip-rule="evenodd" d="M16 0.5C7.16022 0.5 0 7.61331 0 16.3952C0 23.4207 4.58686 29.3728 10.9417 31.4805C11.7373 31.6268 12.0319 31.139 12.0319 30.7096C12.0319 30.3291 12.0221 29.3338 12.0123 28.0068C7.56292 28.963 6.62001 25.8796 6.62001 25.8796C5.89319 24.0452 4.84223 23.5475 4.84223 23.5475C3.38858 22.562 4.95028 22.5815 4.95028 22.5815C6.55126 22.6986 7.40577 24.2208 7.40577 24.2208C8.82996 26.6505 11.1479 25.9479 12.0614 25.5381C12.2087 24.5135 12.6212 23.811 13.0731 23.4109C9.52732 23.0206 5.79497 21.6545 5.79497 15.5658C5.79497 13.8289 6.41375 12.4141 7.44506 11.3017C7.27808 10.8919 6.72805 9.28187 7.59239 7.09616C7.59239 7.09616 8.938 6.66682 11.9926 8.72568C13.2695 8.37441 14.6347 8.19877 16 8.18901C17.3554 8.19877 18.7305 8.37441 20.0074 8.72568C23.062 6.66682 24.4076 7.09616 24.4076 7.09616C25.2818 9.28187 24.7317 10.9016 24.5648 11.3017C25.5862 12.4141 26.205 13.8289 26.205 15.5658C26.205 21.6741 22.4629 23.0109 18.8975 23.4109C19.4672 23.8988 19.9877 24.8746 19.9877 26.3577C19.9877 28.4849 19.9681 30.1925 19.9681 30.7194C19.9681 31.1487 20.2529 31.6366 21.0681 31.4805C27.423 29.3728 32 23.4207 32 16.4049C32 7.61331 24.8398 0.5 16 0.5Z" fill="#111212"/>
</g>
<defs>
<clipPath id="clip0_225_4069">
<rect width="32" height="31" fill="white" transform="translate(0 0.5)"/>
</clipPath>
</defs>
</svg>

<svg width="32" height="32" fill="none" xmlns="http://www.w3.org/2000/svg"><g clip-path="url(#a)"><path fill-rule="evenodd" clip-rule="evenodd" d="M16 .5C7.16.5 0 7.613 0 16.395c0 7.026 4.587 12.978 10.942 15.085.795.147 1.09-.341 1.09-.77 0-.38-.01-1.376-.02-2.703-4.45.956-5.392-2.127-5.392-2.127-.727-1.835-1.778-2.332-1.778-2.332-1.453-.986.108-.966.108-.966 1.601.117 2.456 1.639 2.456 1.639 1.424 2.43 3.742 1.727 4.655 1.317.148-1.024.56-1.727 1.012-2.127-3.546-.39-7.278-1.757-7.278-7.845 0-1.737.619-3.152 1.65-4.264-.167-.41-.717-2.02.147-4.206 0 0 1.346-.43 4.4 1.63A15.624 15.624 0 0 1 16 8.189c1.355.01 2.73.185 4.007.537 3.055-2.06 4.4-1.63 4.4-1.63.875 2.186.325 3.806.158 4.206 1.021 1.112 1.64 2.527 1.64 4.264 0 6.108-3.742 7.445-7.307 7.845.57.488 1.09 1.464 1.09 2.947 0 2.127-.02 3.834-.02 4.361 0 .43.285.918 1.1.761C27.423 29.373 32 23.42 32 16.405 32 7.613 24.84.5 16 .5Z" fill="#111212"/></g><defs><clipPath id="a"><path fill="#fff" transform="translate(0 .5)" d="M0 0h32v31H0z"/></clipPath></defs></svg>
